!!!COM:	Busnoys, Antoine
!!!CDT:	~1430///-1492/11/06
!!!OTL:	Est-il merchy
!!!AGN:	Song; Chanson
!!!SCT:	Bus3020
!!!SCA:	Bus3020
!!!voices:	3
**kern	**kern	**kern
*staff3	*staff2	*staff1
*Ivox	*Ivox	*Ivox
*I"Contratenor	*I"Tenor	*I"Cantus
*I'Ct	*I'T	*I'Cn
*clefF4	*clefGv2	*clefG2
*k[]	*k[b-]	*k[b-]
*M3/1	*M3/1	*M3/1
*met(O)	*met(O)	*met(O)
=1-	=1-	=1-
!!LO:TX:Z=12:t=Rondeau
2G	0.r	0.r
4F	.	.
4E	.	.
2D	.	.
2E	.	.
2F	.	.
4G	.	.
4A	.	.
=2	=2	=2
1.B-	0.r	2g
.	.	4f
.	.	4e
.	.	2d
2G	.	2e
2A	.	2f
4B-i	.	4g
4c	.	4a
=3	=3	=3
2.d	2G	1.b-
.	4F	.
4c	4E	.
2d	2D	.
2B-i	2E	2g
1A	2F	2a
.	4G	4b-
.	4A	4cc
=4	=4	=4
0G	1.B-	2dd
.	.	1g
.	2G	2dd
1r	2A	2cc
.	4B-	4b-
.	4c	4a
=5	=5	=5
2G	2.d	2b-
2D	.	1a
.	4c	.
2F	2d	.
2G	2B-	1g
1D	1A	.
.	.	2f#i
=6	=6	=6
2r	0G	1g
1d	.	.
.	.	2r
2B-i	.	2dd
1G	2r	2dd
.	2d	2b-
=7	=7	=7
2F	2d	2a
2G	2B-	2g
1D	1A	2f
.	.	2f
1E	2G	2g
.	2E	2g
=8	=8	=8
2F	2D	2a
1G	2.d	2.b-
.	4c	4a
2A	4B-	4g
.	4A	4f
1E	1B-	1g
=9	=9	=9
2r	1A	0a
2.F	.	.
.	1d	.
4G	.	.
2D	.	.
2E	2c	1r
2F	2A	.
=10	=10	=10
1G	1B-	1dd
1r	1A	2cc
.	.	2a
1G	2G	1b-
.	[2d	.
=11	=11	=11
1F	2d]	2a
.	2c	2a
1G	2B-	2g
.	4A	1dd
.	4G	.
1D	1F#i	.
.	.	2cc
=12	=12	=12
2E-i	2G	2b-
2G	2.B-	4a
.	.	4g
1D	.	2f
.	4A	.
.	2.d	2d
1A	.	1e
.	4c#i	.
.	4c#i	.
.	4Bni	.
=13	=13	=13
2DN	0dN	0.dN
1G	.	.
2F	.	.
2G	1r	.
[2B-i	.	.
=14	=14	=14
4B-i]	1G	1r
4c	.	.
2.d	.	.
.	1F	1r
4c	.	.
2A	.	.
1B-i	1G	1g
=15	=15	=15
2A	1D	1f
2d	.	.
2c	2E	1g
2B-i	2.G	.
1A	.	1d
.	4F#i	.
.	4F#i	.
.	4E	.
=16	=16	=16
1G	2G	2e
.	2B-	2.g
1D	2.A	.
.	.	4f#i
.	.	4f#i
.	8GL	4e
.	8FJ	.
1r	2E	2g
.	2D	2b-
=17	=17	=17
2.F	2r	2.a
.	2.A	.
4G	.	8gL
.	.	8fJ
1A	.	1e
.	4B-	.
.	4c	.
.	8B-L	.
.	8cJ	.
[1D	2d	[1f
.	4c	.
.	4B-	.
=18	=18	=18
1D]	2A	2f]
.	4G	2e
.	4F	.
2AA	2E	2c
2BB	2D	2d
2C	2C	2e
2D	[2A	[2f
=19	=19	=19
2C	4A]	4f]
.	4G	4e
2D	2F	2d
2AA	2E	2c
2BB	2D	1d
1AA	1E	.
.	.	2c#i
=20	=20	=20
1A	1.D	1d
1B-	.	1r
.	1G	.
1A	.	1a
.	2F#i	.
=21	=21	=21
1r	1G	2.b-
.	.	4a
1G	1r	2.b-
.	.	4cc
1r	1G	2b-
.	.	4a
.	.	4g
=22	=22	=22
2G	0d	2b-
2F	.	1a
1D	.	.
.	.	4g
.	.	4f
2AA	2c	2e
2D	2A	2f
=23	=23	=23
2BB-	2.B-	2g
2GG	.	2.dd
.	4A	.
1BB-i	2F	.
.	.	4cc
.	2D	2b-
1AA	2E	2cc
.	2F	2a
=24	=24	=24
1GG	2G	2b-
.	2B-	2g
0D	2A	2.f
.	1d	.
.	.	8gL
.	.	8aJ
.	.	2b-
.	2F	2a
=25	=25	=25
2r	2G	2b-
2D	2F	2.a
1E-i	1G	.
.	.	4g
.	.	2.g
1D	1A	.
.	.	4f#i
.	.	4f#i
.	.	4e
=26	=26	=26
0.GGl	0.Gl	0.gl
==	==	==
*-	*-	*-
!!!RDF**kern: l=long note in original notation
!!!RDF**kern: i=editorial accidental
!!!RDF**kern: N=signum congruentiae
!!!ENC:	Chris Gage 02-10-2015
!!!END:	2015/02/20/
!!!EED:	Jesse Rodin
!!!EEV:	2015/05/10/
!!!ONB:	Translated from MusicXML and edited on 2015/05/10/ by Craig Sapp
!!muse2ps: C^@{COM}^i2I150v95,95,150Q16c75
